X: 13729
T: Forde's
R: polka
M: 2/4
K: Amixolydian
|:A/G/|EA, CE|AG EF|G>F GD|B,C DC/D/|
EA, CE|AG EF|G>F GD|B,A, A,:|
|:A/B/|cA BA|GE EA/B/|cA Bc|dc/d/ ed|
cA B>A|GE EF|G/F/E DB,|A,2 A,:|

